packages/ndla-icons/svg/contentType/shared-resource.svg

<svg xmlns="http://www.w3.org/2000/svg" data-license="Apache License 2.0" data-source="Keyteq" viewBox="0 0 24 24">
  <g fill="none" fill-rule="evenodd">
    <path d="M0 0h24v24H0z"/>
    <path fill="currentColor" fill-rule="nonzero" d="M6 17h3l2-4V7H5v6h3l-2 4Zm8 0h3l2-4V7h-6v6h3l-2 4Z"/>
  </g>
</svg>

<?xml version="1.0" encoding="UTF-8"?>
<svg width="24px" height="24px" viewBox="0 0 24 24" version="1.1" xmlns="http://www.w3.org/2000/svg" xmlns:xlink="http://www.w3.org/1999/xlink" data-license="Apache License 2.0" data-source="Keyteq">
    <g id="Page-1" stroke="none" stroke-width="1" fill="none" fill-rule="evenodd">
        <g id="eksterne-ressurser">
            <g id="Shape">
                <polygon points="0 0 24 0 24 24 0 24"></polygon>
                <path d="M6,17 L9,17 L11,13 L11,7 L5,7 L5,13 L8,13 L6,17 Z M14,17 L17,17 L19,13 L19,7 L13,7 L13,13 L16,13 L14,17 Z" fill="currentColor" fill-rule="nonzero"></path>
            </g>
        </g>
    </g>
</svg>
